Modules/BetterCms.Module.Root/Scss/base_64/icons/cp-show-right.svg

<svg xmlns="http://www.w3.org/2000/svg" preserveAspectRatio="xMidYMid" width="30" height="26" viewBox="0 0 30 26">
    <path fill="#168ee2" fill-rule="evenodd" d="M15.923,0.000 L11.000,6.000 L15.923,12.000 L19.000,12.000 L14.692,6.000 L19.000,0.000 L15.923,0.000 Z"/>
    <path fill="#e7e7e7" fill-rule="evenodd" d="M29.000,21.000 L29.000,19.000 L30.000,19.000 L30.000,21.000 L29.000,21.000 ZM28.000,24.000 L28.000,21.000 L29.000,21.000 L29.000,24.000 L28.000,24.000 ZM27.000,26.000 L27.000,24.000 L28.000,24.000 L28.000,26.000 L27.000,26.000 ZM26.000,21.000 L27.000,21.000 L27.000,24.000 L26.000,24.000 L26.000,21.000 ZM25.000,24.000 L24.000,24.000 L24.000,20.000 L25.000,20.000 L25.000,19.000 L26.000,19.000 L26.000,21.000 L25.000,21.000 L25.000,24.000 ZM23.000,26.000 L23.000,24.000 L24.000,24.000 L24.000,26.000 L23.000,26.000 ZM22.000,21.000 L23.000,21.000 L23.000,24.000 L22.000,24.000 L22.000,21.000 ZM21.000,19.000 L22.000,19.000 L22.000,21.000 L21.000,21.000 L21.000,19.000 ZM19.000,20.000 L20.000,20.000 L20.000,25.000 L19.000,25.000 L19.000,20.000 ZM19.000,26.000 L15.000,26.000 L15.000,25.000 L19.000,25.000 L19.000,26.000 ZM14.000,25.000 L14.000,20.000 L15.000,20.000 L15.000,25.000 L14.000,25.000 ZM15.000,19.000 L19.000,19.000 L19.000,20.000 L15.000,20.000 L15.000,19.000 ZM10.000,23.000 L7.000,23.000 L7.000,26.000 L6.000,26.000 L6.000,23.000 L6.000,22.000 L6.000,19.000 L7.000,19.000 L7.000,22.000 L10.000,22.000 L10.000,19.000 L11.000,19.000 L11.000,22.000 L11.000,23.000 L11.000,26.000 L10.000,26.000 L10.000,23.000 ZM-0.000,26.000 L-0.000,25.000 L4.000,25.000 L4.000,26.000 L-0.000,26.000 ZM4.000,24.000 L5.000,24.000 L5.000,25.000 L4.000,25.000 L4.000,24.000 ZM3.000,23.000 L2.000,23.000 L2.000,22.000 L3.000,22.000 L4.000,22.000 L4.000,23.000 L4.000,24.000 L3.000,24.000 L3.000,23.000 ZM1.000,21.000 L2.000,21.000 L2.000,22.000 L1.000,22.000 L1.000,21.000 ZM-0.000,20.000 L1.000,20.000 L1.000,21.000 L-0.000,21.000 L-0.000,20.000 ZM4.000,19.000 L4.000,20.000 L1.000,20.000 L1.000,19.000 L4.000,19.000 Z"/>
</svg>

<svg xmlns="http://www.w3.org/2000/svg" width="30" height="26" viewBox="0 0 30 26">
 <g fill-rule="evenodd">
  <path fill="#168ee2" d="m15.923 0l-4.923 6 4.923 6h3.077l-4.308-6 4.308-6h-3.077"/>
  <path fill="#e7e7e7" d="m29 21v-2h1v2h-1m-1 3v-3h1v3h-1m-1 2v-2h1v2h-1m-1-5h1v3h-1v-3m-1 3h-1v-4h1v-1h1v2h-1v3m-2 2v-2h1v2h-1m-1-5h1v3h-1v-3m-1-2h1v2h-1v-2m-2 1h1v5h-1v-5m0 6h-4v-1h4v1m-5-1v-5h1v5h-1m1-6h4v1h-4v-1m-5 4h-3v3h-1v-3-1-3h1v3h3v-3h1v3 1 3h-1v-3m-10 3v-1h4v1h-4m4-2h1v1h-1v-1m-1-1h-1v-1h1 1v1 1h-1v-1m-2-2h1v1h-1v-1m-1-1h1v1h-1v-1m4-1v1h-3v-1h3"/>
 </g>
</svg>
